src/cmd/lc_dataincolumns.svg

<svg viewBox="0 0 24 24" xmlns="http://www.w3.org/2000/svg"><path d="m4 4v1 14 1h1 14 1v-15-1zm1 1h4v2h-4zm5 0h4v1 1h-4v-1zm5 0h4v2h-3-1v-1zm-10 3h4v2h-4zm5 0h4v1 1h-4v-1zm5 0h4v1 1h-4v-1zm-10 3h4v2h-4zm5 0h4v2h-4zm5 0h4v2h-4zm-10 3h4v2h-4zm5 0h4v2h-4v-1zm5 0h4v1 1h-4v-1z" fill="#232629"/></svg>

<?xml version="1.0" encoding="UTF-8" standalone="no"?>
<svg
   xmlns:dc="http://purl.org/dc/elements/1.1/"
   xmlns:cc="http://creativecommons.org/ns#"
   xmlns:rdf="http://www.w3.org/1999/02/22-rdf-syntax-ns#"
   xmlns:svg="http://www.w3.org/2000/svg"
   xmlns="http://www.w3.org/2000/svg"
   xmlns:sodipodi="http://sodipodi.sourceforge.net/DTD/sodipodi-0.dtd"
   xmlns:inkscape="http://www.inkscape.org/namespaces/inkscape"
   viewBox="0 0 24 24"
   version="1.1"
   id="svg4"
   sodipodi:docname="lc_dataincolumns.svg"
   inkscape:version="0.92.4 (5da689c313, 2019-01-14)">
  <metadata
     id="metadata10">
    <rdf:RDF>
      <cc:Work
         rdf:about="">
        <dc:format>image/svg+xml</dc:format>
        <dc:type
           rdf:resource="http://purl.org/dc/dcmitype/StillImage" />
      </cc:Work>
    </rdf:RDF>
  </metadata>
  <defs
     id="defs8" />
  <sodipodi:namedview
     pagecolor="#ffffff"
     bordercolor="#666666"
     borderopacity="1"
     objecttolerance="10"
     gridtolerance="10"
     guidetolerance="10"
     inkscape:pageopacity="0"
     inkscape:pageshadow="2"
     inkscape:window-width="1920"
     inkscape:window-height="1011"
     id="namedview6"
     showgrid="true"
     inkscape:zoom="39.333333"
     inkscape:cx="13.118963"
     inkscape:cy="12.596141"
     inkscape:window-x="0"
     inkscape:window-y="32"
     inkscape:window-maximized="1"
     inkscape:current-layer="svg4">
    <inkscape:grid
       type="xygrid"
       id="grid817" />
  </sodipodi:namedview>
  <path
     d="M 7,4 C 5,4 4,4 4,6 v 12 c 0,2 1,2 3,2 h 10 c 2,0 3,0 3,-2 V 6 C 20,4 19,4 17,4 Z M 5,6 C 5,5 6,5 7,5 H 9 V 7 H 5 Z m 5,-1 h 4 V 6 7 H 10 V 6 Z m 5,0 h 2 c 1,0 2,0 2,1 V 7 H 16 15 V 6 Z M 5,8 h 4 v 2 H 5 Z m 5,0 h 4 v 1 1 H 10 V 9 Z m 5,0 h 4 v 1 1 H 15 V 9 Z M 5,11 h 4 v 2 H 5 Z m 5,0 h 4 v 2 h -4 z m 5,0 h 4 v 2 H 15 Z M 5,14 h 4 v 2 H 5 Z m 5,0 h 4 v 2 h -4 v -1 z m 5,0 h 4 v 1 1 h -4 v -1 z"
     id="path2"
     inkscape:connector-curvature="0"
     style="fill:#232629"
     sodipodi:nodetypes="cccccccccccccccccccccccccccccccccccccccccccccccccccccccccccccccccccccccccccccccccc" />
</svg>
